X: 94
T: Old Bell Cow
B: canberra pickers and fiddlers
B: old time tunes update
B: tunes
M:C|
L:1/8
R: reel
Q: 1/4=100
K:Amixolydian
V:1 
"Am"A=cAG EGED | "A"^CA,2CA,3A, | A,B,^CE A2AG | "D"FD2F D3A- |
"Am"A=cAG EGED | "A"^CA,2C A,2CB, |A,B,^CE AEAG |1 "D"FD2E D3A :|2 "D"FD2E D4 ||
|:"A"e3f e2ed | ^cdef e2A2 | "G"d2d2 BAGB | dBd=c BG3 |
"A"e3f e2ed | ^cdef efef | "G"gfgf efed | "A"^cABc A4 :|
W: Went down to the cornfield to pick a mess of beans,
W: Along come the bell cow a-pecking at the greens.
W: 
W: Refrain
W: Oh, the bell cow, catch her by the tail,
W: Oh, the bell cow, milk her in the pail. (repeat)
W: 
W: The milk ain’t whipped and the butter ain’t fat,
W: The darned old cow ate my best hat. Refrain
W: 
W: Partridge in the pea patch, pickin’ up the peas,
W: Along comes the bell cow kickin’ up her heels! Refrain
W: 
W: One of these days when I learn how,
W: I’m gonna milk that old bell cow. Refrain
W: 
W: I milked that bell cow couple a quarts,
W: Sold that milk and I got me a horse. Refrain
W: 
W: The bell cow has a couple a horns
W: Ain’t been milked since I was born. Refrain
% abcbook-tune_id 67a7d9ececb8c97eb74a9fa7
% abcbook-tune_composer_id 
% abcbook-link-0 https://www.youtube.com/watch?v=2BWD2puOMK0
% abcbook-link-title-0 Old Bell Cow
% abcbook-boost 0
% abcbook-difficulty 0
% abcbook-tags old time tunes
% abcbook-tablature 
% abcbook-transpose 
% abcbook-tuning AEAC#
% abcbook-lastupdated 1739181027136
% abcbook-src-url 
% abcbook-soundfonts 
% abcbook-repeats 1
% Rhythm Reel
% Titles One title
% Transcriptions Only 1 transcription
% Movement Has some stepwise movement
% Mode major
% Key D
% Time_signature 2/2
% Has_accompaniment_chords Has chords

